icons/solid/applications.svg

<svg width="24" height="24" viewBox="0 0 24 24" fill="none" xmlns="http://www.w3.org/2000/svg">
<path fill-rule="evenodd" clip-rule="evenodd" d="M6 3C4.34315 3 3 4.34315 3 6V8C3 9.65685 4.34315 11 6 11H8C9.65685 11 11 9.65685 11 8V6C11 4.34315 9.65685 3 8 3H6ZM6 13C4.34315 13 3 14.3431 3 16V18C3 19.6569 4.34315 21 6 21H8C9.65685 21 11 19.6569 11 18V16C11 14.3431 9.65685 13 8 13H6ZM16 13C14.3431 13 13 14.3431 13 16V18C13 19.6569 14.3431 21 16 21H18C19.6569 21 21 19.6569 21 18V16C21 14.3431 19.6569 13 18 13H16ZM16 3C14.3431 3 13 4.34315 13 6V8C13 9.65685 14.3431 11 16 11H18C19.6569 11 21 9.65685 21 8V6C21 4.34315 19.6569 3 18 3H16Z" fill="currentColor"/>
</svg>

<svg width="24" height="24" fill="none" xmlns="http://www.w3.org/2000/svg"><path fill-rule="evenodd" clip-rule="evenodd" d="M6 3a3 3 0 00-3 3v2a3 3 0 003 3h2a3 3 0 003-3V6a3 3 0 00-3-3H6zm0 10a3 3 0 00-3 3v2a3 3 0 003 3h2a3 3 0 003-3v-2a3 3 0 00-3-3H6zm10 0a3 3 0 00-3 3v2a3 3 0 003 3h2a3 3 0 003-3v-2a3 3 0 00-3-3h-2zm0-10a3 3 0 00-3 3v2a3 3 0 003 3h2a3 3 0 003-3V6a3 3 0 00-3-3h-2z" fill="currentColor"/></svg>
